chrome/icons/up.svg

<svg height="16" viewBox="0 0 960 1024" width="16" xmlns="http://www.w3.org/2000/svg" xmlns:xlink="http://www.w3.org/1999/xlink">
  <path d="M960,480C960,488.667 956.833,496.167 950.5,502.5C944.167,508.833 936.667,512 928,512C919.333,512 911.833,508.833 905.5,502.5L512,109.5L512,992C512,1000.67 508.833,1008.17 502.5,1014.5C496.167,1020.83 488.667,1024 480,1024C471.333,1024 463.833,1020.83 457.5,1014.5C451.167,1008.17 448,1000.67 448,992L448,109.5L54.5,502.5C48.1667,508.833 40.6667,512 32,512C23.3333,512 15.8333,508.833 9.5,502.5C3.16667,496.167 0,488.667 0,480C0,471.333 3.16667,463.833 9.5,457.5L456,11C459.667,7.33337 463.25,4.58337 466.75,2.75C470.25,0.916687 474.667,0 480,0C485.333,0 489.75,0.916687 493.25,2.75C496.75,4.58337 500.333,7.33337 504,11L950.5,457.5C956.833,463.833 960,471.333 960,480Z" fill="context-fill" fill-opacity="context-fill-opacity">
  </path>
</svg>

<svg xmlns="http://www.w3.org/2000/svg" width="16" height="16" viewBox="0 0 960 1024"><path fill="context-fill" fill-opacity="context-fill-opacity" d="M960 480q0 13-9.5 22.5T928 512t-22.5-9.5L512 109.5V992q0 13.005-9.5 22.5c-6.333 6.33-13.833 9.5-22.5 9.5s-16.167-3.17-22.5-9.5q-9.5-9.495-9.5-22.5V109.5l-393.5 393Q45 512 32 512t-22.5-9.5T0 480t9.5-22.5L456 11q5.5-5.5 10.75-8.25T480 0t13.25 2.75T504 11l446.5 446.5Q960 467 960 480"/></svg>
